X: 48
T:Hunsup Through The Wood. HS.48
M:6/8
Q:120
S:Henry Stables MS,Cumbria,late19thC
R:Jig
O:Walthwaite,nr.Ambleside.
A:England
Z:vmp.Chris Partington
K:G
G2d Bcd|G2d Bcd|edc BAG|A2B cBA|!
G2d Bcd|G2d Bcd|edc BAG|A3e3||!
A2Bc2d|e2e edc|BGB AFA|G3e3|!
A2Bc2d|egf ed^c|d2g fef|g3-g3||
